X:339
T:Maid In the Meadow, The
T:Stone In the Field, The
S:Padraig O'Keeffe MS, via 'Music from Sliabh Luachra'
Z:Nigel Gatherer
L:1/8
M:6/8
K:G
B|cBA BdB|AGA BGE|DEG AGA|BdB AGE|cBA BdB|AGA BGE|
DEG AGA|BGG G2::D|GBd gdd|edd gdB|GBd gdB|
AGA BGE|GBd gfg|e/f/ge fdB|GBB AGA|BGG G2:|]
